X: 100122
M: 3/4
L: 1/8
Q: "Allegretto."
K: F
u(AB) |\
(c2A2)(Aa) | f3z(uAd) | (dE) EccE | F3z(uEF) |\
(vAB)cdc2 | (cf)Adc2 | (cB) (BA) (Bd) | (dc)cB Az |\
(vFG)AB(cd) | (cB)BAG2- | G2 z2 (uAB) | (c2A)z (uAa) |
f3z(Ad) | (dE) Ec cE | F3zz2 | vE2E2FD |\
E2E2Gc | =B2G2DF | E4(CD) | E2E2FD |
E2E2Gc | (=B2g)zuF2 | E2(F2G2) | (AB)cd cz |\
(vcf)Adc2 | (cB) BA (Bd) | (dc)cB Az | (vFG)AB(cd) |
(cB)BA Gz | (FG)AB(cd) | (cB)BAG2- | G2z2(uAB) |\
(c2A2) (Aa) | f3z(uAd) | (dE)"^rit.  .  .  ."Ec cE | F3z |]


